shields/template_usaus_wide.svg

<?xml version="1.0" encoding="UTF-8" standalone="no"?>
<!-- Created with Inkscape (http://www.inkscape.org/) -->

<svg
   xmlns:dc="http://purl.org/dc/elements/1.1/"
   xmlns:cc="http://creativecommons.org/ns#"
   xmlns:rdf="http://www.w3.org/1999/02/22-rdf-syntax-ns#"
   xmlns:svg="http://www.w3.org/2000/svg"
   xmlns="http://www.w3.org/2000/svg"
   xmlns:sodipodi="http://sodipodi.sourceforge.net/DTD/sodipodi-0.dtd"
   xmlns:inkscape="http://www.inkscape.org/namespaces/inkscape"
   width="45"
   height="36"
   id="svg5960"
   version="1.1"
   inkscape:version="0.91 r"
   viewBox="0 0 45 36"
   sodipodi:docname="template_usaus_wide.svg">
  <defs
     id="defs5962" />
  <sodipodi:namedview
     id="base"
     pagecolor="#ffffff"
     bordercolor="#666666"
     borderopacity="1.0"
     inkscape:pageopacity="0.0"
     inkscape:pageshadow="2"
     inkscape:zoom="7"
     inkscape:cx="1.1428571"
     inkscape:cy="29.714286"
     inkscape:current-layer="layer1"
     showgrid="true"
     inkscape:grid-bbox="true"
     inkscape:document-units="px"
     inkscape:window-width="1920"
     inkscape:window-height="1020"
     inkscape:window-x="0"
     inkscape:window-y="0"
     inkscape:window-maximized="1" />
  <metadata
     id="metadata5965">
    <rdf:RDF>
      <cc:Work
         rdf:about="">
        <dc:format>image/svg+xml</dc:format>
        <dc:type
           rdf:resource="http://purl.org/dc/dcmitype/StillImage" />
        <dc:title></dc:title>
      </cc:Work>
    </rdf:RDF>
  </metadata>
  <g
     id="layer1"
     inkscape:label="Layer 1"
     inkscape:groupmode="layer">
    <g
       style="overflow:visible"
       id="g5597"
       transform="scale(0.06,0.06)">
      <g
         id="g5581">
        <g
           id="g5583">
          <path
             id="path5585"
             d="M 0,50 C 0,22.385742 22.385254,0 50,0 l 650,0 c 27.61426,0 50,22.385742 50,50 l 0,500 c 0,27.61523 -22.38574,50 -50,50 L 50,600 C 22.385254,600 0,577.61523 0,550 L 0,50 0,50 Z"
             inkscape:connector-curvature="0" />
          <path
             id="path5587"
             d="M 375,300"
             inkscape:connector-curvature="0" />
        </g>
        <path
           id="path5589"
           d="M 375,10.001953 C 338.67236,32.46582 295.8501,45.430664 249.99951,45.430664 204.14941,45.430664 161.32715,32.463867 125,10 L 10,125 c 21.163086,30.08105 33.588379,66.75244 33.588379,106.32715 0,28.56055 -6.472168,55.60889 -18.028809,79.75879 C 15.585449,331.95605 9.9995117,355.32617 9.9995117,380 c 0,88.36719 71.6333003,160 159.9999983,160 l 100.11572,0 C 312.4585,540 350.24854,559.49414 375,589.99805 399.75098,559.49414 437.54102,540 479.88477,540 L 580,540 c 88.36719,0 160,-71.63281 160,-160 0,-24.67383 -5.58398,-48.04395 -15.56055,-68.91406 -11.55664,-24.1499 -18.02734,-51.19824 -18.02734,-79.75879 0,-39.57471 12.4248,-76.2461 33.58789,-106.32715 L 625,10 c -36.32813,22.463867 -79.15039,35.430664 -125,35.430664 -45.85059,0 -88.67285,-12.964844 -125,-35.428711 z"
           inkscape:connector-curvature="0"
           style="clip-rule:evenodd;fill:#ffffff;fill-rule:evenodd" />
      </g>
    </g>
    <text
       xml:space="preserve"
       style="font-style:normal;font-variant:normal;font-weight:normal;font-stretch:normal;font-size:30.46421623px;line-height:125%;font-family:'Roadgeek 2014 Series D';-inkscape-font-specification:'Roadgeek 2014 Series D, Normal';text-align:start;letter-spacing:0px;word-spacing:0px;writing-mode:lr-tb;text-anchor:start;fill:#000000;fill-opacity:1;stroke:none;stroke-width:1px;stroke-linecap:butt;stroke-linejoin:miter;stroke-opacity:1"
       x="22.774349"
       y="26.704062"
       id="text5604"
       sodipodi:linespacing="125%"><tspan
         sodipodi:role="line"
         id="tspan5606"
         x="22.774351"
         y="26.704062"
         style="font-style:normal;font-variant:normal;font-weight:normal;font-stretch:normal;font-family:'Roadgeek 2014 Series C';-inkscape-font-specification:'Roadgeek 2014 Series C';text-align:center;text-anchor:middle">***NUMBER***</tspan></text>
  </g>
</svg>

<svg xmlns="http://www.w3.org/2000/svg" width="45" height="36" viewBox="0 0 45 36"><g transform="scale(.06)"><g><path d="m0 50c0-27.614 22.385-50 50-50h650c27.614 0 50 22.386 50 50v500c0 27.615-22.386 50-50 50h-650c-27.615 0-50-22.385-50-50v-500"/></g><path d="m375 10c-36.33 22.464-79.15 35.429-125 35.429-45.85 0-88.67-12.967-125-35.431l-115 115c21.16 30.08 33.588 66.752 33.588 106.33 0 28.561-6.472 55.609-18.03 79.76-9.974 20.87-15.56 44.24-15.56 68.914 0 88.37 71.63 160 160 160h100.12c42.34 0 80.13 19.494 104.88 49.998 24.751-30.504 62.54-49.998 104.88-49.998h100.12c88.37 0 160-71.63 160-160 0-24.674-5.584-48.04-15.561-68.914-11.557-24.15-18.03-51.2-18.03-79.76 0-39.575 12.425-76.25 33.588-106.33l-115-115c-36.33 22.464-79.15 35.431-125 35.431-45.851 0-88.67-12.965-125-35.429" fill="#fff" fill-rule="evenodd"/></g><text x="22.774" y="26.704" font-family="&apos;Roadgeek 2014 Series D&apos;" letter-spacing="0" word-spacing="0" text-align="start" line-height="125%" font-size="30.464"><tspan x="22.774" y="26.704" font-family="&apos;Roadgeek 2014 Series C&apos;" text-anchor="middle" text-align="center">***NUMBER***</tspan></text></svg>
